public/img/clients/mediakitty.svg

<svg width="200" height="100" viewBox="0 0 200 100" fill="none" xmlns="http://www.w3.org/2000/svg">
<path d="M56.112 42.4798C56.112 43.7474 54.9953 44.1699 52.7015 44.1699C50.6494 44.1699 50.0456 43.9284 50.0456 42.6005V36.2927L50.3173 31.3732H50.1664L47.2087 39.6427C46.6353 41.182 45.9111 41.4537 44.2811 41.4537C43.0437 41.4537 42.5005 41.3027 42.0779 40.0652L38.9695 31.4034H38.8185L39.0902 36.3531V42.4496C39.0902 43.7474 38.0641 44.1699 35.7401 44.1699C33.6576 44.1699 32.9937 43.9585 32.9937 42.9023V24.7033C32.9937 23.4962 34.895 22.7416 37.5811 22.7416C39.8749 22.7416 40.9614 23.1038 41.2329 24.1601L44.4623 34.8441H44.6132L47.8124 24.6128C48.1141 23.4962 49.9853 22.7416 52.8524 22.7416C55.1161 22.7416 56.112 23.1341 56.112 24.1903L56.112 42.4798Z" fill="black"/>
<path d="M63.719 37.0775C63.719 39.1901 64.9262 40.337 67.1597 40.337C69.3327 40.337 71.0228 39.3108 71.7169 39.3108C72.4412 39.3108 73.4975 40.6689 73.4975 41.6045C73.4975 43.2041 70.3589 44.4415 66.4656 44.4415C60.52 44.4415 57.5623 41.4839 57.5623 35.6288C57.5623 29.5625 60.7613 26.3936 66.888 26.3936C71.4452 26.3936 73.7692 28.1742 73.7692 31.645C73.7692 35.327 71.1737 37.0775 65.6203 37.0775L63.719 37.0775ZM63.538 33.5463C63.5218 33.8886 63.5319 34.2317 63.5682 34.5725C67.0993 34.5725 68.4273 33.8783 68.4273 32.2486C68.4655 31.9608 68.4374 31.6681 68.3452 31.3928C68.253 31.1175 68.0991 30.8669 67.8953 30.6602C67.6915 30.4534 67.4431 30.296 67.1692 30.1999C66.8952 30.1038 66.6029 30.0716 66.3146 30.1057C64.4435 30.1057 63.538 31.2224 63.538 33.5463Z" fill="black"/>
<path d="M85.6609 42.0874C84.8763 43.5662 83.0655 44.4415 80.7716 44.4415C76.5766 44.4415 74.5546 41.5743 74.5546 35.5382C74.5546 29.3512 76.8481 26.4841 81.315 26.4841C83.4881 26.4841 84.9668 27.148 85.7213 28.4458H85.9326L85.6609 26.3935V22.2285C85.6609 21.3231 87.3512 20.629 89.524 20.629C91.1842 20.629 91.9688 20.961 91.9688 21.6854V42.7212C91.9688 43.5964 90.5804 44.1699 88.4073 44.1699C86.8682 44.1699 86.1137 43.8983 86.0232 43.2343L85.8722 42.0874H85.6609ZM85.9326 32.7013C85.954 32.3784 85.9077 32.0547 85.7967 31.7507C85.6856 31.4468 85.5123 31.1695 85.2878 30.9365C85.0633 30.7035 84.7926 30.5199 84.493 30.3977C84.1935 30.2754 83.8717 30.2171 83.5482 30.2264C81.8582 30.2264 80.832 31.494 80.832 35.508C80.832 39.2806 81.6469 40.4879 83.4881 40.4879C83.8157 40.5259 84.1477 40.4899 84.4595 40.3824C84.7713 40.275 85.0549 40.0989 85.2896 39.8671C85.5242 39.6354 85.7038 39.3539 85.8151 39.0434C85.9264 38.733 85.9666 38.4015 85.9326 38.0734V32.7013Z" fill="black"/>
<path d="M97.1002 25.3069C95.0479 25.3069 94.0822 24.6429 94.0822 23.1943C94.0822 21.5646 95.38 20.6592 97.7038 20.6592C99.7259 20.6592 100.661 21.2929 100.661 22.7717C100.661 24.4015 99.4243 25.3069 97.1002 25.3069ZM100.39 42.8419C100.39 43.7172 99.062 44.1699 96.7681 44.1699C94.9875 44.1699 94.1425 43.8983 94.1425 43.2947V28.6569C94.1425 27.7516 95.8627 27.0273 98.0056 27.0273C99.5751 27.0273 100.39 27.3894 100.39 28.1137V42.8419Z" fill="black"/>
<path d="M112.07 41.9668C111.346 43.5361 109.565 44.4415 107.272 44.4415C103.922 44.4415 101.839 42.5099 101.839 39.3712C101.839 35.5986 104.857 33.5463 110.501 33.5463H112.131C112.131 31.4336 111.135 30.4981 108.901 30.4981C106.517 30.4981 105.008 31.645 104.314 31.645C103.65 31.645 102.684 30.1057 102.684 29.1098C102.684 27.6309 106.155 26.3936 110.29 26.3936C115.994 26.3936 118.378 28.7476 118.378 34.3612V42.6609C118.378 43.6267 117.08 44.1699 114.847 44.1699C113.278 44.1699 112.523 43.8983 112.463 43.3249L112.282 41.9668L112.07 41.9668ZM111.376 35.9004C108.932 35.9004 107.755 36.8058 107.755 38.496C107.719 38.7911 107.751 39.0904 107.848 39.3716C107.944 39.6527 108.102 39.9086 108.311 40.1202C108.52 40.3318 108.774 40.4937 109.053 40.5939C109.333 40.6942 109.632 40.7301 109.928 40.6991C111.527 40.6991 112.372 39.7333 112.372 38.0735V35.9004L111.376 35.9004Z" fill="black"/>
<path d="M51.0114 70.7393C51.3086 71.1053 51.5062 71.5419 51.5849 72.0068C51.5849 73.2141 48.8383 74.723 46.3334 74.723C45.4884 74.723 45.1261 74.542 44.8547 73.878L41.052 66.4536L39.1805 68.3852L39.4522 71.0712V72.7311C39.4522 73.9383 38.3959 74.4212 35.5891 74.4212C33.567 74.4212 32.9937 74.1497 32.9937 73.1537V54.8643C32.9937 53.7777 34.6535 52.993 36.9172 52.993C38.577 52.993 39.4522 53.4155 39.4522 54.2003C39.4522 54.7435 39.422 55.6489 39.3919 56.5543L39.06 61.4738H39.3012L44.7037 53.657C44.8184 53.3638 45.0237 53.115 45.2897 52.9467C45.5557 52.7784 45.8685 52.6994 46.1825 52.7214C48.1442 52.7214 50.7097 54.5925 50.7097 55.9507C50.6312 56.4954 50.3511 56.9908 49.9248 57.3389L45.0054 62.4094L51.0114 70.7393Z" fill="black"/>
<path d="M56.0221 55.5584C53.9698 55.5584 53.004 54.8944 53.004 53.4457C53.004 51.816 54.3019 50.9106 56.6256 50.9106C58.6478 50.9106 59.5834 51.5444 59.5834 53.0232C59.5834 54.653 58.3461 55.5584 56.0221 55.5584ZM59.3119 73.0934C59.3119 73.9686 57.9839 74.4213 55.6901 74.4213C53.9094 74.4213 53.0644 74.1498 53.0644 73.5461V58.9085C53.0644 58.0031 54.7846 57.2787 56.9275 57.2787C58.4971 57.2787 59.3119 57.6409 59.3119 58.3652V73.0934Z" fill="black"/>
<path d="M79.8957 68.6568C79.8957 70.0753 80.469 70.1357 81.7971 70.3168C82.6119 70.4374 83.1248 70.7393 83.1248 72.2484C83.1248 73.9988 82.2194 74.6929 79.3523 74.6929C75.7005 74.6929 73.7085 72.9726 73.7085 69.4113V61.0815H68.8193V68.6568C68.8193 69.8941 69.091 70.1055 70.5395 70.3168C71.4449 70.4676 71.7468 70.9807 71.7468 72.0974C71.7468 73.9988 70.8716 74.6929 68.2761 74.6929C64.5637 74.6929 62.5718 72.9726 62.5718 69.4113V61.0815H61.3345C60.61 61.0815 60.2782 60.5382 60.2782 59.4819C60.2782 57.9426 60.8213 56.9165 61.7569 56.9165H62.6623V54.2908C62.6623 52.9628 64.4731 51.8462 66.5255 51.8462C67.9441 51.8462 68.7589 52.1781 68.7891 52.7516V56.9165H73.7991V54.2908C73.7991 52.9628 75.5495 51.8462 77.5716 51.8462C79.0806 51.8462 79.8655 52.1781 79.8655 52.7516V56.9165H82.1892C82.9437 56.9165 83.306 57.4899 83.306 58.5463C83.306 60.2061 82.7628 61.0815 81.8874 61.0815H79.8957L79.8957 68.6568Z" fill="black"/>
<path d="M101.113 71.5542C101.113 76.8659 98.1557 79.371 91.7877 79.371C87.5925 79.371 84.665 78.2844 84.665 76.6244C84.665 75.719 85.5402 74.2402 86.2343 74.2402C86.7777 74.2402 89.1316 75.2362 91.6066 75.2362C94.3228 75.2362 95.4999 74.0592 95.5301 71.4938C94.1727 72.0945 92.6979 72.3833 91.2141 72.3388C86.5361 72.3388 84.3027 70.0451 84.3027 65.6387V58.8179C84.3027 57.6107 85.6307 56.9165 88.1055 56.9165C89.7958 56.9165 90.4597 57.2486 90.4597 58.1238V66.7554C90.4597 68.5662 91.3349 69.3208 92.7837 69.3208C94.2624 69.3208 95.0772 68.5662 95.0772 67.2081V58.7877C95.0772 57.6409 96.3449 56.9165 98.6989 56.9165C100.329 56.9165 101.113 57.2486 101.113 57.9729V71.5542Z" fill="black"/>
<path d="M148.198 61.8878C147.605 61.1684 145.126 61.2598 144.473 61.9245C143.752 62.6596 145.326 63.7784 146.354 63.7684C147.382 63.7566 148.854 62.6825 148.198 61.8878Z" fill="black"/>
<path d="M166.865 46.2284C166.485 43.1204 165.406 40.1389 163.709 37.5077C162.011 34.8764 159.74 32.6638 157.066 31.0359C159.436 28.6699 164.078 26.5899 164.166 21.8672C164.283 15.6078 159.8 11.2644 151.115 12.0322C149.232 12.1783 147.39 12.6592 145.677 13.4524C144.531 14.1434 143.879 14.7823 144.067 15.6265C144.21 16.3389 145.163 17.9468 145.823 17.8713C146.132 17.836 148.084 17.1145 148.576 16.9831C149.562 16.7049 150.576 16.5322 151.599 16.4679C157.262 15.9201 159.245 18.2625 159.236 21.5458C159.223 26.7094 143.964 27.1116 138.743 38.696C135.28 39.8767 128.608 43.2626 127.59 51.9292C126.588 60.4511 129.172 65.1403 132.635 69.0232C134.38 70.9818 137.555 73.7255 140.945 72.4529C144.31 71.1895 144.819 67.9386 142.301 66.4473C138.793 64.3742 134.279 62.3106 133.409 55.0881C133.089 52.3765 133.308 49.6285 134.053 47.0016C134.308 46.0728 134.651 45.4311 135.225 45.2007C135.591 45.0531 135.996 45.033 136.375 45.1434C136.754 45.2538 137.084 45.4884 137.314 45.8095C138.513 47.0432 139.579 48.3998 140.493 49.8569C142.243 49.2433 144.086 48.9361 145.94 48.9487C147.796 48.8996 149.644 49.19 151.395 49.8056C152.295 48.3387 153.348 46.9714 154.536 45.7267C154.76 45.4428 155.058 45.2268 155.397 45.103C155.737 44.9792 156.104 44.9525 156.458 45.026C156.862 45.111 157.544 45.4196 157.905 46.7544C159.562 52.8812 160.252 63.0322 145.006 78.2683C141.79 81.4829 141.987 86.0505 145.532 87.5398C150.504 89.6269 154.355 84.8598 155.87 82.4956C161.294 74.0387 165.647 63.9728 164.974 52.9428C164.915 52.616 164.951 52.2791 165.079 51.9726C165.207 51.6661 165.42 51.403 165.694 51.2149C167.218 50.2125 167.104 48.4044 166.865 46.2284Z" fill="black"/>
<path d="M138.743 57.1338C138.732 56.9099 138.769 56.6862 138.853 56.4783C138.937 56.2704 139.065 56.0833 139.229 55.9303C139.393 55.7772 139.588 55.6618 139.801 55.5922C140.014 55.5225 140.24 55.5003 140.463 55.5271C141.878 55.5271 142.649 56.0571 142.649 57.1338C142.649 57.3903 142.599 57.6444 142.501 57.8814C142.402 58.1184 142.259 58.3337 142.077 58.5151C141.896 58.6965 141.68 58.8404 141.443 58.9386C141.206 59.0367 140.952 59.0872 140.696 59.0872C140.438 59.0907 140.183 59.0426 139.944 58.9457C139.706 58.8488 139.489 58.705 139.307 58.5229C139.125 58.3408 138.981 58.124 138.884 57.8854C138.788 57.6468 138.74 57.3913 138.743 57.1338Z" fill="black"/>
<path d="M153.844 57.1338C153.856 56.9099 153.819 56.6862 153.735 56.4783C153.651 56.2704 153.523 56.0833 153.359 55.9303C153.195 55.7772 153 55.6618 152.787 55.5922C152.573 55.5225 152.348 55.5003 152.125 55.5271C150.71 55.5271 149.939 56.0571 149.939 57.1338C149.939 57.3903 149.989 57.6444 150.087 57.8814C150.185 58.1184 150.329 58.3337 150.511 58.5151C150.692 58.6965 150.907 58.8404 151.144 58.9386C151.381 59.0367 151.635 59.0872 151.892 59.0872C152.149 59.0907 152.405 59.0426 152.644 58.9457C152.882 58.8488 153.099 58.705 153.281 58.5229C153.463 58.3408 153.606 58.124 153.703 57.8854C153.8 57.6468 153.848 57.3913 153.844 57.1338Z" fill="black"/>
</svg>

<svg xmlns="http://www.w3.org/2000/svg" focusable="false" role="img" viewBox="0 0 200 100" fill="currentColor">
  <path d="M56.112 42.48c0 1.267-1.117 1.69-3.41 1.69-2.053 0-2.656-.242-2.656-1.57v-6.307l.271-4.92h-.15l-2.958 8.27c-.574 1.539-1.298 1.81-2.928 1.81-1.237 0-1.78-.15-2.203-1.388l-3.109-8.662h-.15l.271 4.95v6.097c0 1.297-1.026 1.72-3.35 1.72-2.082 0-2.746-.211-2.746-1.268V24.703c0-1.207 1.901-1.961 4.587-1.961 2.294 0 3.38.362 3.652 1.418l3.23 10.684h.15l3.2-10.231c.301-1.117 2.172-1.871 5.04-1.871 2.263 0 3.259.392 3.259 1.448v18.29zM63.719 37.078c0 2.112 1.207 3.259 3.44 3.259 2.174 0 3.864-1.026 4.558-1.026.724 0 1.78 1.358 1.78 2.294 0 1.6-3.138 2.837-7.031 2.837-5.946 0-8.904-2.958-8.904-8.813 0-6.066 3.2-9.235 9.326-9.235 4.557 0 6.881 1.78 6.881 5.251 0 3.682-2.595 5.433-8.149 5.433H63.72zm-.181-3.532c-.016.343-.006.686.03 1.026 3.531 0 4.86-.694 4.86-2.323a1.905 1.905 0 00-2.113-2.143c-1.872 0-2.777 1.116-2.777 3.44zM85.66 42.087c-.784 1.48-2.595 2.354-4.888 2.354-4.195 0-6.218-2.867-6.218-8.903 0-6.187 2.294-9.054 6.761-9.054 2.173 0 3.652.664 4.406 1.962h.212l-.272-2.053v-4.165c0-.905 1.69-1.599 3.863-1.599 1.66 0 2.445.332 2.445 1.056v21.036c0 .875-1.389 1.449-3.562 1.449-1.539 0-2.293-.272-2.384-.936l-.15-1.147h-.212zm.273-9.386a2.322 2.322 0 00-2.385-2.475c-1.69 0-2.716 1.268-2.716 5.282 0 3.773.815 4.98 2.656 4.98a2.202 2.202 0 002.445-2.415v-5.372zM97.1 25.307c-2.052 0-3.018-.664-3.018-2.113 0-1.63 1.298-2.535 3.622-2.535 2.022 0 2.957.634 2.957 2.113 0 1.63-1.237 2.535-3.56 2.535zm3.29 17.535c0 .875-1.328 1.328-3.622 1.328-1.78 0-2.626-.272-2.626-.875V28.657c0-.905 1.72-1.63 3.864-1.63 1.57 0 2.384.363 2.384 1.087v14.728zM112.07 41.967c-.724 1.57-2.505 2.474-4.798 2.474-3.35 0-5.433-1.931-5.433-5.07 0-3.772 3.018-5.825 8.662-5.825h1.63c0-2.112-.996-3.048-3.23-3.048-2.384 0-3.893 1.147-4.587 1.147-.664 0-1.63-1.54-1.63-2.535 0-1.48 3.471-2.716 7.606-2.716 5.704 0 8.088 2.354 8.088 7.967v8.3c0 .966-1.298 1.509-3.531 1.509-1.569 0-2.324-.272-2.384-.845l-.181-1.358h-.212zm-.694-6.067c-2.444 0-3.621.906-3.621 2.596a1.972 1.972 0 001.298 2.098c.28.1.579.136.875.105 1.599 0 2.444-.966 2.444-2.625V35.9h-.996zM51.011 70.74c.298.365.495.802.574 1.267 0 1.207-2.747 2.716-5.252 2.716-.844 0-1.207-.18-1.478-.845l-3.803-7.424-1.871 1.931.271 2.686v1.66c0 1.207-1.056 1.69-3.863 1.69-2.022 0-2.595-.271-2.595-1.267v-18.29c0-1.086 1.66-1.871 3.923-1.871 1.66 0 2.535.422 2.535 1.207 0 .544-.03 1.449-.06 2.354l-.332 4.92h.241l5.403-7.817a1.477 1.477 0 011.478-.936c1.962 0 4.528 1.872 4.528 3.23a2.198 2.198 0 01-.785 1.388l-4.92 5.07 6.006 8.33zM56.022 55.558c-2.052 0-3.018-.664-3.018-2.112 0-1.63 1.298-2.535 3.622-2.535 2.022 0 2.957.633 2.957 2.112 0 1.63-1.237 2.535-3.56 2.535zm3.29 17.535c0 .876-1.328 1.328-3.622 1.328-1.78 0-2.625-.271-2.625-.875V58.908c0-.905 1.72-1.63 3.863-1.63 1.57 0 2.384.363 2.384 1.087v14.728zM79.896 68.657c0 1.418.573 1.479 1.901 1.66.815.12 1.328.422 1.328 1.931 0 1.75-.906 2.445-3.773 2.445-3.651 0-5.644-1.72-5.644-5.282v-8.33H68.82v7.576c0 1.237.272 1.449 1.72 1.66.906.15 1.208.664 1.208 1.78 0 1.902-.875 2.596-3.47 2.596-3.713 0-5.705-1.72-5.705-5.282v-8.33h-1.238c-.724 0-1.056-.543-1.056-1.6 0-1.538.543-2.565 1.479-2.565h.905v-2.625c0-1.328 1.811-2.445 3.863-2.445 1.42 0 2.234.332 2.264.906v4.164h5.01v-2.625c0-1.328 1.75-2.445 3.773-2.445 1.509 0 2.293.332 2.293.906v4.164h2.324c.755 0 1.117.574 1.117 1.63 0 1.66-.543 2.535-1.419 2.535h-1.991v7.576zM101.113 71.554c0 5.312-2.957 7.817-9.325 7.817-4.195 0-7.123-1.087-7.123-2.747 0-.905.875-2.384 1.57-2.384.543 0 2.897.996 5.371.996 2.717 0 3.894-1.177 3.924-3.742a9.93 9.93 0 01-4.316.845c-4.678 0-6.911-2.294-6.911-6.7v-6.821c0-1.207 1.328-1.901 3.802-1.901 1.69 0 2.355.332 2.355 1.207v8.631c0 1.811.875 2.566 2.324 2.566 1.478 0 2.293-.755 2.293-2.113v-8.42c0-1.147 1.268-1.871 3.622-1.871 1.63 0 2.414.332 2.414 1.056v13.581zM148.198 61.888c-.593-.72-3.072-.628-3.725.036-.721.736.853 1.854 1.881 1.844 1.028-.011 2.5-1.086 1.844-1.88z"/>
  <path d="M166.865 46.228a20.733 20.733 0 00-9.799-15.192c2.37-2.366 7.012-4.446 7.1-9.169.117-6.26-4.366-10.603-13.051-9.835a15.863 15.863 0 00-5.438 1.42c-1.146.691-1.798 1.33-1.61 2.175.143.712 1.096 2.32 1.756 2.244.309-.035 2.261-.756 2.753-.888.986-.278 2-.45 3.023-.515 5.663-.548 7.646 1.795 7.637 5.078-.013 5.163-15.272 5.566-20.493 17.15-3.463 1.18-10.135 4.567-11.153 13.233-1.002 8.522 1.582 13.211 5.045 17.094 1.745 1.959 4.92 4.703 8.31 3.43 3.365-1.264 3.874-4.514 1.356-6.006-3.508-2.073-8.022-4.136-8.892-11.359-.32-2.711-.101-5.46.644-8.086.255-.93.598-1.57 1.172-1.801a1.76 1.76 0 012.089.609 24.449 24.449 0 013.179 4.047c1.75-.614 3.593-.92 5.447-.908 1.856-.05 3.704.241 5.455.857a24.355 24.355 0 013.141-4.08 1.948 1.948 0 011.922-.7c.404.085 1.086.394 1.447 1.728 1.657 6.127 2.347 16.278-12.899 31.514-3.216 3.215-3.019 7.783.526 9.272 4.972 2.087 8.823-2.68 10.338-5.044 5.424-8.457 9.777-18.523 9.104-29.553a1.723 1.723 0 01.72-1.728c1.524-1.003 1.41-2.81 1.171-4.987z"/>
  <path d="M138.743 57.134a1.547 1.547 0 01.486-1.204 1.538 1.538 0 011.234-.403c1.415 0 2.186.53 2.186 1.607a1.956 1.956 0 01-.572 1.381 1.949 1.949 0 01-1.381.572 1.93 1.93 0 01-1.953-1.953zM153.844 57.134a1.53 1.53 0 00-.485-1.204 1.538 1.538 0 00-1.234-.403c-1.415 0-2.186.53-2.186 1.607a1.937 1.937 0 00.572 1.381 1.945 1.945 0 001.381.572 1.924 1.924 0 001.952-1.953z"/>
</svg>
